X:307
T:Thistle of Scotland #1, The 
C:Joe Buchanan's Scottish Tome - Page 064.2
I:064 2
C:Traditional
Z:Carl Allison
R:March
L:1/8
Q:1/4=120
M:4/4
K:A
E>F | A2 Ac A2 AF | E2 E>F E2 AB | c2 BA e2 Ac | B2 B>c B2 E>F |
A2 Ac A2 AF | E2 E>F E2 A>B | ce ce E2 cB | A2 A>B A2- A :|
A>B | c2 ce c2 BA | F2 FA E2 AB | c2 BA e2 Ac | B2 B>c B2 E>F | 
A>B ce c2 BA | F/A FA E2 A>B | ce ce E2 cB | A2 A>B A2- A :|

